public/platforms/threads.svg

<svg aria-label="Threads" viewBox="0 0 192 192" xmlns="http://www.w3.org/2000/svg"><path class="x19hqcy" d="M141.537 88.9883C140.71 88.5919 139.87 88.2104 139.019 87.8451C137.537 60.5382 122.616 44.905 97.5619 44.745C97.4484 44.7443 97.3355 44.7443 97.222 44.7443C82.2364 44.7443 69.7731 51.1409 62.102 62.7807L75.881 72.2328C81.6116 63.5383 90.6052 61.6848 97.2286 61.6848C97.3051 61.6848 97.3819 61.6848 97.4576 61.6855C105.707 61.7381 111.932 64.1366 115.961 68.814C118.893 72.2193 120.854 76.925 121.825 82.8638C114.511 81.6207 106.601 81.2385 98.145 81.7233C74.3247 83.0954 59.0111 96.9879 60.0396 116.292C60.5615 126.084 65.4397 134.508 73.775 140.011C80.8224 144.663 89.899 146.938 99.3323 146.423C111.79 145.74 121.563 140.987 128.381 132.296C133.559 125.696 136.834 117.143 138.28 106.366C144.217 109.949 148.617 114.664 151.047 120.332C155.179 129.967 155.42 145.8 142.501 158.708C131.182 170.016 117.576 174.908 97.0135 175.059C74.2042 174.89 56.9538 167.575 45.7381 153.317C35.2355 139.966 29.8077 120.682 29.6052 96C29.8077 71.3178 35.2355 52.0336 45.7381 38.6827C56.9538 24.4249 74.2039 17.11 97.0132 16.9405C119.988 17.1113 137.539 24.4614 149.184 38.788C154.894 45.8136 159.199 54.6488 162.037 64.9503L178.184 60.6422C174.744 47.9622 169.331 37.0357 161.965 27.974C147.036 9.60668 125.202 0.195148 97.0695 0H96.9569C68.8816 0.19447 47.2921 9.6418 32.7883 28.0793C19.8819 44.4864 13.2244 67.3157 13.0007 95.9325L13 96L13.0007 96.0675C13.2244 124.684 19.8819 147.514 32.7883 163.921C47.2921 182.358 68.8816 191.806 96.9569 192H97.0695C122.03 191.827 139.624 185.292 154.118 170.811C173.081 151.866 172.51 128.119 166.26 113.541C161.776 103.087 153.227 94.5962 141.537 88.9883ZM98.4405 129.507C88.0005 130.095 77.1544 125.409 76.6196 115.372C76.2232 107.93 81.9158 99.626 99.0812 98.6368C101.047 98.5234 102.976 98.468 104.871 98.468C111.106 98.468 116.939 99.0737 122.242 100.233C120.264 124.935 108.662 128.946 98.4405 129.507Z"></path></svg>

<svg xmlns="http://www.w3.org/2000/svg" aria-label="Threads" viewBox="0 0 192 192"><path d="M141.537 88.988a67 67 0 0 0-2.518-1.143c-1.482-27.307-16.403-42.94-41.457-43.1h-.34c-14.986 0-27.449 6.396-35.12 18.036l13.779 9.452c5.73-8.695 14.724-10.548 21.348-10.548h.229c8.249.053 14.474 2.452 18.503 7.129 2.932 3.405 4.893 8.111 5.864 14.05-7.314-1.243-15.224-1.626-23.68-1.14-23.82 1.371-39.134 15.264-38.105 34.568.522 9.792 5.4 18.216 13.735 23.719 7.047 4.652 16.124 6.927 25.557 6.412 12.458-.683 22.231-5.436 29.049-14.127 5.178-6.6 8.453-15.153 9.899-25.93 5.937 3.583 10.337 8.298 12.767 13.966 4.132 9.635 4.373 25.468-8.546 38.376-11.319 11.308-24.925 16.2-45.488 16.351-22.809-.169-40.06-7.484-51.275-21.742C35.236 139.966 29.808 120.682 29.605 96c.203-24.682 5.63-43.966 16.133-57.317C56.954 24.425 74.204 17.11 97.013 16.94c22.975.17 40.526 7.52 52.171 21.847 5.71 7.026 10.015 15.86 12.853 26.162l16.147-4.308c-3.44-12.68-8.853-23.606-16.219-32.668C147.036 9.607 125.202.195 97.07 0h-.113C68.882.194 47.292 9.642 32.788 28.08 19.882 44.485 13.224 67.315 13.001 95.932L13 96v.067c.224 28.617 6.882 51.447 19.788 67.854C47.292 182.358 68.882 191.806 96.957 192h.113c24.96-.173 42.554-6.708 57.048-21.189 18.963-18.945 18.392-42.692 12.142-57.27-4.484-10.454-13.033-18.945-24.723-24.553M98.44 129.507c-10.44.588-21.286-4.098-21.82-14.135-.397-7.442 5.296-15.746 22.461-16.735q2.948-.17 5.79-.169c6.235 0 12.068.606 17.371 1.765-1.978 24.702-13.58 28.713-23.802 29.274" class="x19hqcy"/></svg>
